icons/desktop/16/svg/extension-16.svg

<svg width="16" height="16" viewBox="0 0 16 16" fill="none" xmlns="http://www.w3.org/2000/svg">
<path fill-rule="evenodd" clip-rule="evenodd" d="M8.25 1.5C7.55921 1.5 7 2.05921 7 2.75V4.25C7 4.66421 6.66421 5 6.25 5H3.5C3.22421 5 3 5.22421 3 5.5V7H4.25C5.76921 7 7 8.23079 7 9.75C7 11.2692 5.76921 12.5 4.25 12.5H3V14C3 14.2758 3.22421 14.5 3.5 14.5H13C13.2758 14.5 13.5 14.2758 13.5 14V5.5C13.5 5.22421 13.2758 5 13 5H10.25C9.83579 5 9.5 4.66421 9.5 4.25V2.75C9.5 2.05921 8.94079 1.5 8.25 1.5ZM5.5 2.75C5.5 1.23079 6.73079 0 8.25 0C9.76921 0 11 1.23079 11 2.75V3.5H13C14.1042 3.5 15 4.39579 15 5.5V14C15 15.1042 14.1042 16 13 16H3.5C2.39579 16 1.5 15.1042 1.5 14V11.75C1.5 11.3358 1.83579 11 2.25 11H4.25C4.94079 11 5.5 10.4408 5.5 9.75C5.5 9.05921 4.94079 8.5 4.25 8.5H2.25C1.83579 8.5 1.5 8.16421 1.5 7.75V5.5C1.5 4.39579 2.39579 3.5 3.5 3.5H5.5V2.75Z" fill="black"/>
</svg>

<!-- This Source Code Form is subject to the terms of the Mozilla Public
   - License, v. 2.0. If a copy of the MPL was not distributed with this
   - file, You can obtain one at http://mozilla.org/MPL/2.0/. -->
<svg xmlns="http://www.w3.org/2000/svg" width="16" height="16" fill="context-fill" fill-opacity="context-fill-opacity" viewBox="0 0 16 16">
    <path d="M8.25 1.5C7.56 1.5 7 2.06 7 2.75v1.5a.75.75 0 0 1-.75.75H3.5a.5.5 0 0 0-.5.5V7h1.25a2.75 2.75 0 1 1 0 5.5H3V14a.5.5 0 0 0 .5.5H13a.5.5 0 0 0 .5-.5V5.5A.5.5 0 0 0 13 5h-2.75a.75.75 0 0 1-.75-.75v-1.5c0-.69-.56-1.25-1.25-1.25M5.5 2.75a2.75 2.75 0 1 1 5.5 0v.75h2a2 2 0 0 1 2 2V14a2 2 0 0 1-2 2H3.5a2 2 0 0 1-2-2v-2.25a.75.75 0 0 1 .75-.75h2a1.25 1.25 0 1 0 0-2.5h-2a.75.75 0 0 1-.75-.75V5.5a2 2 0 0 1 2-2h2z" />
</svg>
